X:1
T:Funkerlied
T:Arr. Comrade Izzy
%%score { 1 | 2 }
L:1/8
Q:1/4=112
M:4/4
K:G
V:1 treble nm="Piano" snm="Pno."
V:2 bass 
V:1
 D>D | [DG]2 [DG]2 [DG]2 GA | [GB]2 [GB]2 [GB]2 GB | [FA]2 [A,D]2 [FA]2 [A,D]2 | G4 z2 D>D | %5
 [DG]2 [DG]2 [DG]2 GA | [GB]2 [GB]2 [GB]2 BB | [EA]3 B [EA]2 [EG]2 | F4 z2 D>D | A2 ^G2 A2 DD | %10
 B>B B^A B2 G2 | E3 F G2 B2 | [EA]2 z2 z2 B2 | [FA]3 G [DF]2 E2 | [A,D]>D (3DFA d2 GA | %15
 B>B B>B B>B BA | G>D DD D2 GG | A2 [Ad]2 [Ad]3 c | [Gc]4 [GB]2 Bc | %19
 [Bd][Bd][GB][GB] [DG][DG][GB][GB] | A>A AB A2 A2 | B2 B2 z2 ^c2 | d2 d>d d2 | Bd | c2 A2 E2 F2 | %25
 G>G GB D2 Bd | c2 A2 E2 F2 | G>F GB D2 D2 | G2 G2 B>A GF | E2 z2 z2 c2 | B>G GA B2 A2 | %31
 G2 G,/4B,/4D/4G/4B/4d/4 g2 z/ |] %32
V:2
 D,>D, | G,,[B,,D,]G,,[B,,D,] G,,[B,,D,]G,,[B,,D,] | G,,[B,,D,]G,,[B,,D,] G,,[B,,D,]G,,[B,,D,] | %3
 [A,,A,]>A, [D,,D,]>D, [A,,A,]>A, [D,,D,]>D, | %4
 [G,,B,,D,]2 [G,,B,,D,]>[G,,B,,D,] [G,,B,,D,]2 D,>D, | G,,[B,,D,]G,,[B,,D,] G,,[B,,D,]G,,[B,,D,] | %6
 G,,[B,,D,]G,,[B,,D,] G,,[B,,D,]G,,[B,,D,] | [A,,E,G,]4 [A,,E,G,]4 | %8
 [D,F,A,]2 [D,F,A,]2 [D,F,A,]2 D,>D, | [A,,D,F,A,]4 [A,,D,F,A,]2 D,D, | %10
 [G,,B,,D,G,]4 [G,,B,,D,G,]2 G,,2 | [G,,B,,E,]4 [B,,D,G,]2 [B,,D,G,]2 | %12
 [A,,^C,E,]2 [A,,C,E,]>[A,,C,E,] [A,,C,E,]2 B,2 | [A,,D,F,A,]4 [A,,D,F,A,]4 | [D,F,A,]4 z2 G,,A,, | %15
 .[G,,G,].[B,D].[G,,G,].[B,D] .[G,,G,].[B,D].[G,,G,].[B,D] | %16
 .[G,,G,].[B,D].[G,,G,].[B,D] .[G,,G,].[B,D].[G,,G,].[B,D] | %17
 .[A,,A,].[DF].[A,,A,].[DF] .[A,,A,].[DF].[A,,A,].[DF] | %18
 .[G,,G,].[B,D].[G,,G,].[B,D] .[G,,G,].[B,D].[G,,G,].[B,D] | %19
 .[G,,G,].[B,D].[G,,G,].[B,D] .[G,,G,].[B,D].[G,,G,].[B,D] | %20
 .[A,,A,].[DF].[A,,A,].[DF] .[A,,A,].[DF].[A,,A,].[DF] | .[B,,B,]2 .[B,,B,]2 z2 .[^C,^C]2 | %22
 .[D,D]2 .[D,D]2 z2 | B,,D, | .[A,,A,].[DF].[A,,A,].[DF] .[A,,A,].[DF].[A,,A,].[DF] | %25
 .[G,,G,].[B,D].[G,,G,].[B,D] .[G,,G,].[B,D].[G,,G,].[B,D] | %26
 .[A,,A,].[DF].[A,,A,].[DF] .[A,,A,].[DF].[A,,A,].[DF] | %27
 .[G,,G,].[B,D].[G,,G,].[B,D] .[G,,G,].[B,D].[G,,G,].[B,D] | %28
 .[G,,G,].[B,D].[G,,G,].[B,D] .[G,,G,].[B,D].[G,,G,].[B,D] | .[C,E,G,]2 z2 z2 C,2 | %30
 .[G,,G,].[B,D].[G,,G,].[B,D] .[G,,G,].[B,D].[G,,G,].[B,D] | [G,,B,,D,G,]2 z4 |] %32

